X:5411
T:Flying Boy,The. GS.080
T:Cats in the Village,aka. GS.080
M:6/8
L:1/8
Q:120
S:George Spencer m/s, Leeds,1831
R:Jig
O:England
A:Leeds
H:1831
Z:vmp.Cherri Graebe
K:G major
/2c/2 | "p"d2d (e2d) | B2B (d2c) | A2A AGA | (B3 G2) B/2c/2 |
d2d e2d |
 B2B d2c | A2A AGF | (G3G2) ||!
"f"g | f2d def | (g3d2)B | (ce).c (Bd).B | AFD D2g | f2d def | (g3e2) g
| fga gfe | (d3d2) "p" B/2c/2 | !
d2d (e2d) | B2B (d2c) | A2A AGA | (B3G2) B/2c/2 | d2d (e2d) | B2B d2c |
 A2A AGF | (G3G2) ||!
"Minor" B | e2e g2g | fef  B2B | c2AF2B | (G3E2) B | e2eg2g | fef B2B |
c2AF2B | ("Da Capo" E3E2) ||
